Pdef(~name +++ \pre, Pbind(
	\isRest, Veco(~namex).isrest(32),
	\env0, [ Env.new([0.5, 9, 1.1, 0], [0.005, 0.16, 1.4], [-4, -2, 4]) ],
	\env1, [ Env.new([50, 15, 20], [0.205, 0.29], [-4, -5]) ],
));

// END

Ndef(~name+++\mixer).edit
