Pdef(~name +++ \pre, Pbind(
	\isRest, Veco(~namex).isrest(16),
	\env0, [ Env.new([0.5, 1, 0.5, 0], [0.005, 0.06, 0.4], [-4, -2, -4]) ],
	\env1, [ Env.new([100, 55, 25], [0.005, 0.29], [-4, -5]) ],
));
