
// sample funk: pigs go home
// bpm: 92


~t = 92.20/4/60; TempoClock.default.tempo = ~t;
~t = 72.20/4/60; TempoClock.default.tempo = ~t;


(
Pdef(\part, Pdef(\zed, 
	Ppar([
		Pbind(
			\instrument, \playersec,
			\bufnum, ~buflib.kick[1010].value,
			\bufnum, ~buflib.kick[~buflib.kick.size.rand.debug("k")].value,
			\isRest, Pseq([
				1,0,0,0, 0,0,0,0,
			],inf).coin.not,
			\dur, 1/8,
			\gain, 0.3,
		),
		Pbind(
			\instrument, \playersec,
			\bufnum, ~buflib.snare[1719].value,
			\bufnum, ~buflib.snare[~buflib.snare.size.rand.debug("s")].value,
			\isRest, Pseq([
				0,0,1,0, 0,0,1,0,
			],inf).coin.not,
			\dur, 1/8,
			\gain, 0.61,
		),
		Pbind(
			\instrument, \playersec,
			\bufnum, BufDef('loop/pigs.flac'),
			\legato, 1,
			\speed, 1 * (~t/( 92.20/4/60 )),
			\dur, 2,
			\gain, 1,
		)
		
	])
)).play;
);

(~t/( 92.20/4/60 ))
