
(
~t = ~t ?? { ~t = 1; TempoClock.default.tempo = ~t; ~t };
s.waitForBoot { FileSystemProject.load("sun/lib.scd"); };
)

ParamProto.init
// END


Document.current.path
(
[
"ddwCommon",
"wslib",
"crucial-library",
"Feedback",
"Modality-toolkit",
"Log",
"JITLibExtensions",
"WindowViewRecall",
"https://github.com/muellmusik/EQui",
].do { arg quark;
	Quarks.install(quark);
}
)


////////////////////////////////////////////////////////////////////
