
(


~morph = { arg mainkey, lagtime, pat;
	var base = pat.asStream.next(());
	var bind = List.new;
	var proxy;
	var bus;
	base.keysValuesDo { arg key, val;
		var ndefkey = "%.%".format(mainkey, key).asSymbol;
		[key, val].debug("morph:val");
		if(val.isArray) {
			var asize;
			var aval;
			aval = val[0];
			aval = aval.asArray;
			asize = aval.size;
			Ndef(ndefkey, { 
				blend(Ndef(ndefkey).kr(asize), aval, Line.kr(0, 1, lagtime))
			});
			if(val[0].class == Env) {
				bus = val;
			} {
				proxy = Ndef(ndefkey);
				bus = [proxy.busArg];
			}
		} {
			Ndef(ndefkey, { 
				Line.kr(Ndef(ndefkey).kr, val, lagtime)
			});
			proxy = Ndef(ndefkey);
			bus = proxy.bus.asMap;
		};
		bind.add(key);
		bind.add(bus);
	};
	Pbind(*bind)
};


// pattern morphing
~morphpat = { arg pat1, pat2, mpat;
	var spat1, spat2, smpat;
	var ev1, ev2, morph;
	var res_ev;
	var rout;
	var exclu = Set[\dur, \instrument, \isRest];
	//var inclu = Set[\ffreq];
	spat1 = pat1.asStream;
	spat2 = pat2.asStream;
	smpat = mpat.asStream;
	rout = Prout { arg in;
		block { arg break;
			loop {
				in = in.deepCopy;
				ev1 = spat1.next(in);
				ev2 = spat2.next(in);
				morph = smpat.next;
				if(ev1.isNil or: { ev2.isNil or: { morph.isNil }}) { 
					break.value;
				} {
					res_ev = in.deepCopy;
					ev1.keys.difference(exclu).do { arg key;
					//ev1.keys.select({ arg x; inclu.includes(x) }).do { arg key;
						//res_ev[key] = (ev1[key] * morph) + (ev2[key] * (1 - morph));
						if(ev1[key].isNumber or: {ev1[key].isSequenceableCollection}) {
							res_ev[key] = blend(ev1[key], ev2[key], morph)
						}
					};
					res_ev.debug("res_ev");
					in = res_ev.yield;
				}
			}
		}
	};
	rout
};

);
