PlayerWrapper(Pdef('zed2')).presetCompileStringSavePath = "capsule/testproj4/dataPdef_zed2.scd";

Pdef('zed2').set('dur', 1.0);
Pdef('zed2').set('legato', 0.8);
Pdef('zed2').set('out', BusDef(\trackMixerDef_testproj4_mainTrackGrid.0));
Pdef('zed2').set('freq', 261.6255653006);
Pdef('zed2').set('amp', 0.1);
Pdef('zed2').set('pan', 0.0);
