

Pdef(~name +++ \pre, Pbind(
	\fratio, 4.25,
	\isRest, Veco(~namex).isrest(32),
	\env0, Pseq([
		[ Env.new([1.5, 9, 9.5, 0], [0.0005, 0.16, 0.1], [-4, -2, -4]) ],
		[ Env.new([1.5, 9, 9.5, 0], [0.0005, 0.16, 0.2], [-4, -2, -4]) ],
	])
	\env1, [ Env.new([080, 49, 29], [0.005, 0.49], [-4, -5]) ],
));
