

Pdef(~name +++ \pre, Pbind(
	\fratio, 0.25,
	\isRest, Veco(~namex).isrest(16),
	\env0, [ Env.new([1.5, 9, 1.5, 0], [0.0005, 0.16, 0.01], [-4, -2, -4]) ],
	\env1, [ Env.new([080, 49, 29], [0.005, 0.29], [-4, -5]) ],
));
