
// see also ~/code/sc/seco/vlive/repeat/libdef/synthplayrec.scd 
SynthDef(\playersec_hlpf, { arg out=0, amp=0.1, gate=1, pan=0, freq=200, bufnum, speed=1, pos=0, doneAction=2, loop=0, trigger=1, velamp=1;
	// pos in seconds
	var sig;
	var sig1;
	sig = PlayBuf.ar(2, bufnum, BufRateScale.kr(bufnum) * speed, trigger, startPos: (pos*BufSampleRate.kr(bufnum)), doneAction:doneAction, loop: loop);
	sig = sig * EnvGen.ar(\adsr.kr(Env.adsr(0.001,0,1,0.01)),gate,doneAction:doneAction);
	sig = LPF.ar(sig, \lpf.kr(19000));
	sig = HPF.ar(sig, \hpf.kr(40));
	//sig = Pan2.ar(sig, pan, 1).sum;
	Out.ar(out, sig * \gain.kr(1) * velamp);
}).add;
MenuSpecFuncDef(\patkitdef_synthdefs).addUnique(\playersec_hlpf);
