Pdef(~name +++ \pre, Pbind(
	\env0, [ Env.new([0.5, 9, 9.5, 0], [0.005, 0.26, 0.1], [-4, -2, -4]) ],
	\env1, Pseq([
		 [ Env.new([120, 59, 29], [0.005, 0.29], [-4, -5]) ],
		 [ Env.new([100, 39, 29], [0.005, 0.29], [-4, -5]) ],
		 [ Env.new([120, 49, 29], [0.005, 0.29], [-4, -5]) ],
	],inf),
));
