
~currentTrack.initPdef(
	Pbind(
		\instrument, \playersec,
		\bufnum, ~buflib.hat[1064].value,
		\bufnum, ~buflib.hat[~buflib.hat.size.rand.debug("h")].value,
		\isRest, Pseq([
			1,0,1,0, 1,0,1,0,
		],inf).coin.not,
		\dur, 1/8,
		\gain, 0.11,
	),
)
